polaris-icons/icons/new-icons/ExternalSmallMinor.svg

<svg width="20" height="20" viewBox="0 0 20 20" fill="none" xmlns="http://www.w3.org/2000/svg">
<path d="M11.75 4.5C11.3358 4.5 11 4.83579 11 5.25C11 5.66421 11.3358 6 11.75 6H12.9393L10.2197 8.71967C9.92678 9.01256 9.92678 9.48744 10.2197 9.78033C10.5126 10.0732 10.9874 10.0732 11.2803 9.78033L14 7.06066V8.25C14 8.66421 14.3358 9 14.75 9C15.1642 9 15.5 8.66421 15.5 8.25V5.25C15.5 4.83579 15.1642 4.5 14.75 4.5H11.75Z" fill="#4A4A4A"/>
<path d="M15 11.25C15 10.8358 14.6642 10.5 14.25 10.5C13.8358 10.5 13.5 10.8358 13.5 11.25V12.25C13.5 12.9404 12.9404 13.5 12.25 13.5H7.75C7.05965 13.5 6.5 12.9404 6.5 12.25L6.5 7.75C6.5 7.05964 7.05965 6.5 7.75 6.5L8.75 6.5C9.16421 6.5 9.5 6.16421 9.5 5.75C9.5 5.33579 9.16421 5 8.75 5L7.75 5C6.23122 5 5 6.23122 5 7.75V12.25C5 13.7688 6.23122 15 7.75 15H12.25C13.7688 15 15 13.7688 15 12.25V11.25Z" fill="#4A4A4A"/>
</svg>

<svg viewBox="0 0 20 20" xmlns="http://www.w3.org/2000/svg"><path d="M11.75 4.5a.75.75 0 0 0 0 1.5h1.19l-2.72 2.72a.75.75 0 1 0 1.06 1.06l2.72-2.72v1.19a.75.75 0 0 0 1.5 0v-3a.75.75 0 0 0-.75-.75h-3Z" fill="#5C5F62"/><path d="M15 11.25a.75.75 0 0 0-1.5 0v1c0 .69-.56 1.25-1.25 1.25h-4.5c-.69 0-1.25-.56-1.25-1.25v-4.5c0-.69.56-1.25 1.25-1.25h1a.75.75 0 0 0 0-1.5h-1a2.75 2.75 0 0 0-2.75 2.75v4.5a2.75 2.75 0 0 0 2.75 2.75h4.5a2.75 2.75 0 0 0 2.75-2.75v-1Z" fill="#5C5F62"/></svg>
